icons/24px/contentSearch.svg

<?xml version="1.0" encoding="UTF-8"?>
<svg id="Layer_1" data-name="Layer 1" xmlns="http://www.w3.org/2000/svg" viewBox="0 0 24 24">
  <defs>
    <style>
      .cls-1 {
        fill-rule: evenodd;
        stroke-width: 0px;
      }
    </style>
  </defs>
  <path class="cls-1" d="m18,4h-3.1707c-.4118-1.1652-1.5231-2-2.8293-2s-2.4175.8348-2.8293,2h-3.1707c-1.1046,0-2,.8954-2,2v14c0,1.1046.8954,2,2,2h4v-2h-4V6h2v2.6c0,.2209.1791.4.4.4h7.2c.2209,0,.4-.1791.4-.4v-2.6h2v6h2v-6c0-1.1046-.8954-2-2-2Zm-6,2c.5523,0,1-.4477,1-1s-.4477-1-1-1-1,.4477-1,1,.4477,1,1,1Zm5.4458,12.0326c.3521-.5957.5542-1.2905.5542-2.0326,0-2.2091-1.7909-4-4-4s-4,1.7909-4,4,1.7909,4,4,4c.7416,0,1.436-.2018,2.0314-.5535l2.4345,2.4346c.1562.1562.4095.1562.5657,0l.8485-.8485c.1562-.1562.1562-.4095,0-.5657l-2.4343-2.4343Zm-1.4458-2.0326c0,1.1046-.8954,2-2,2s-2-.8954-2-2,.8954-2,2-2,2,.8954,2,2Z"/>
</svg>

<svg width="24" height="24" viewBox="0 0 24 24" fill="none" xmlns="http://www.w3.org/2000/svg">
<path fill-rule="evenodd" clip-rule="evenodd" d="M18 4H14.8293C14.4175 2.83481 13.3062 2 12 2C10.6938 2 9.58254 2.83481 9.17071 4H6C4.89543 4 4 4.89543 4 6V20C4 21.1046 4.89543 22 6 22H10V20H6V6H8V8.6C8 8.82091 8.17909 9 8.4 9H15.6C15.8209 9 16 8.82091 16 8.6V6H18V12H20V6C20 4.89543 19.1046 4 18 4ZM12 6C12.5523 6 13 5.55228 13 5C13 4.44772 12.5523 4 12 4C11.4477 4 11 4.44772 11 5C11 5.55228 11.4477 6 12 6Z" fill="black"/>
<path fill-rule="evenodd" clip-rule="evenodd" d="M17.4458 18.0326C17.7979 17.4369 18 16.7421 18 16C18 13.7909 16.2091 12 14 12C11.7909 12 10 13.7909 10 16C10 18.2091 11.7909 20 14 20C14.7416 20 15.436 19.7982 16.0314 19.4465L18.4659 21.8811C18.6221 22.0373 18.8754 22.0373 19.0316 21.8811L19.8801 21.0326C20.0363 20.8764 20.0363 20.6231 19.8801 20.4669L17.4458 18.0326ZM16 16C16 17.1046 15.1046 18 14 18C12.8954 18 12 17.1046 12 16C12 14.8954 12.8954 14 14 14C15.1046 14 16 14.8954 16 16Z" fill="black"/>
</svg>
